X:1
T: Two Cousins
N:
C:A.J. Vanpelt de Maastricht 1786-1824
S:
A:
O:
R:
M:3/2
K:G
I:speed 176
%W: A1
% voice 1 (1 lines, 22 notes)
K:G
M:3/2
L:1/16
G4 A4 |B4 c4 |d4 B4 |G4 B4 |A4 A4 |G8 |e4 f4 |g4 d4 |c4 B4 |A4 G4 |A4 B4 |A8 |
%W:
% voice 1 (1 lines, 18 notes)
G4 A4 |B4 c4 |d8 |e4 f4 |g4 a4 |g4 d4 |e4 d2 |c2 B8 |A8 |G12|G12 |
%W: A2
% voice 1 (1 lines, 22 notes)
G4 A4 |B4 c4 |d4 B4 |G4 B4 |A4 A4 |G8 |e4 f4 |g4 d4 |c4 B4 |A4 G4 |A4 B4 |A8 |
%W:
% voice 1 (1 lines, 18 notes)
G4 A4 |B4 c4 |d8 |e4 f4 |g4 a4 |g4 d4 |e4 d2 |c2 B8 |A8 |G12|G12 |
%W: B1
% voice 1 (1 lines, 17 notes)
g8 |g4 a4 |b4 g4 |f8 |f4 g4 |a4 f4 |e8 |e4 f4 |g4 e4 |e8 |d16 |
%W:
% voice 1 (1 lines, 19 notes)
c4 B4 |c4 d4 |e4 c4 |B4 G4 |B4 d4 |g4 d4 |e4 d2 |c2 B8 |A8 |G12|G12 |
%W: B2
% voice 1 (1 lines, 17 notes)
g8 |g4 a4 |b4 g4 |f8 |f4 g4 |a4 f4 |e8 |e4 f4 |g4 e4 |e8 |d16 |
%W:
% voice 1 (1 lines, 19 notes)
c4 B4 |c4 d4 |e4 c4 |B4 G4 |B4 d4 |g4 d4 |e4 d2 |c2 B8 |A8 |G12|G12 ||
